X:1
T:Si le partir m'est dueil
T:Si le partir m'est dueil
T:Nicolas Gombert
C:Nicolas Gombert
%%score [ 1 2 3 4 ]
L:1/8
Q:1/4=80
M:2/2
K:C
V:1 treble nm="Superius" snm="S"
V:2 treble nm="Alto" snm="A"
V:3 treble-8 nm="Tenor" snm="T"
V:4 bass nm="Bassus" snm="B"
V:1
 G3 A B2 c2- | c2 B2 c4 | z2 c2 d2 c2 | A2 d4 B2 | c4 B2 G2- | G2 A3 G G2- | G2 F2 G4 | z4 A2 F2 | %8
w: Si _ _ le|_ par- tir|m'est dueil et|grant _ _|_ _ _||* dou- leur,|ha- bon-|
 G2 E4 G2 | A2 B2 c2 BA | G4 A4 | z2 G4 E2 | A4 G2 B2- | B2 G2 c4 | B3 A G2 A2- | A2 G2 c4 | %16
w: don- ner, ha-|bon- don- * * *|ner, _|ha- bon-|don- * *||* * * ner|_ le de-|
 B2 A4 G2 | A4 G4- | G2 G2 GEFG | A2 G4 F2 | G2 d4 d2 | dB cd ed cB | AG c4 B2 | c4 z4 | z4 G4 | %25
w: sir de _|mon cueur,|_ le de- * * *|sir de mon|cueur, le de-|sir- * * * * * * *|* * de mon|cueur,|qui|
 A2 F2 G2 c2 | d2 B2 c2 d2 | B2 e2 d2 c2 | c2 B2 c2 B2- | BA GF A2 G2- | G2 F2 G4- | G8- | %32
w: en ses mains, qui|en ses mains tient|la vi'- et la|mort, _ _ _|_ _ _ _ _ _|||
 !fermata!G8 | z8 | z8 | z8 | A4 c2 c2 | G2 A2 A2 G2 | A2 F2 G3 A | B2 A3 G G2- | G2 F2 G2 G2 | %41
w: ||||J'ay à Ve-|nus si tres bon|re- con- * *||* * fort, que|
 A2 A2 D4 | z2 A2 A2 B2- | B2 A3 G G2- | G2 F2 G4 | z8 | z2 g4 f2 | e2 d2 e2 d2 | B4 A3 G | %49
w: le re- tour|au- ra quel-|* que _ _|_ vi- gueur,||que le|re- tour au- ra|quel- que _|
 F2 G2 D4 | z2 G2 G2 F2 | G3 F EDCD | EF G4 F2 | G8- | G8- | G8 |] %56
w: _ vi- gueur,|au- ra quel-|que _ _ _ _ _|_ _ _ vi-|gueur.|_||
V:2
 z4 G4 | A2 G2 E3 F | G2 A2 G4 | z2 D2 F2 G2- | G2 F2 G2 D2 | E2 D3 B, C2 | D4 B,4 | z2 E2 C2 D2 | %8
w: Si|le par- tir _|_ m'est dueil|et dou- *|* * leur, et|dou- * * *|* leur,|ha- ban- don-|
 B,2 B,2 C2 D2 | E2 G2 F4 |"^#""^#" E2 G3 F F2 | B3 A B2 G2- | G2 F2 G2 D2 | B,2 E4 DC | %14
w: ner, ha- ban- don-||* * * ner,|ha- * * bon-|* * don- ner|le- de- * *|
 D4 z2 F2- | F2 D2 G4- | G2 F2 E4 | E4 z2 D2- | D2 D2 DB,CD | E2 D3 C C2 | D2 G4 FE | D4 C4 | %22
w: sir le|_ de- sir|_ de mon|cueur, le|_ de- sir _ _ _|_ _ _ _|* de _ _|mon cueur,|
 z4 z2 G2- | G2 A2 F2 G2 | E2 F2 D2 E2 | C2 D2 B,2 A,2- | A,G, G4 F2 | G2 c2 A2 G2 | A2 G2 G3 F | %29
w: qui|_ en ses mains|tient la vi'- et|la _ mort,- qui-|_ _ en ses|mains tient la vi'|et la mort, _|
 D2 E4 C2 | D4 E3 F | D4 E4- | !fermata!E8 | z8 | z8 | z4 D4 | F2 F2 C2 A,2 | D2 C2 A,2 C2- | %38
w: _ _ _||||||J'ay|à Ve- nus si|tres bon re- con-|
 C2 D2 E2 D2- | DE F2 D2 E2 | D2 D2 E2 E2 | A,2 A2 B2 B2 | E4 z4 | D4 D2 C2 | D2 D2 B,2 G2- | %45
w: ||fort, que le re-|tour, que le re-|tour|au- ra quel-|que vi- gueur,, que|
 G2 F2 E2 D2- | D2 C2 D2 d2 | c2 B4 A2 | G3 F E4 | D2 B,2 B,2 A,2 | B,2 G,2 A,2 A,B, | %51
w: _ le re- tour|_ au- ra quel-||* * que|_ _ vi- gueur,|au- ra quel- que _|
 CDEF G2 E2- | E2 D2 E2 D2 | B,2 E4 D2 | EDCB, C2 E2 | D8 |] %56
w: _ _ _ _ _ _|||* * * * * vi-|gueur.|
V:3
 G4 d2 e2 | d4 c3 d | e2 f4 e2 | f4 d2 e2- | e2 c2 d2 B2 | c2 A2 B2 G2 | A4 G2 d2 | B2 c2 A4 | %8
w: Si le par-|tir m'est _|_ dueil et|dou- * *|||* leur, ha-|bon- don- ner,|
 G2 G2 A2 B2 | cA e4 d2 | e4 z2 d2- | d2 B2 e4 | d3 c B3 A | G2 g4 f2 | g4 z2 d2- | d2 B2 e4 | %16
w: ha bon- don- *||ner, le|_ de- sir|de _ _ _|_ mon- *|cueur, le|_ de- sir|
 d2 c2 B4 | A4 B4- | B2 B2 BG AB | c2 B2 A4 | G8 | g4 e2 f2- | fe c2 d4 | c4 d2 e2 | c2 d2 B2 c2 | %25
w: _ de mon|cueur, le|_ de- sir _ _ _|_ de mon|cueur,|de mon- *|* * * cueur,|qui en ses|mains tient la vi'-|
 A2 B2 G2 A2 | F2 G2 A4 | G2 g2 f2 e2 | d2 d2 c2 d2 | B2 c3 B G2 | A4 c4- | c2 B2 c4- | %32
w: et la mort, qui|en _ ses|mains tient la vi'|et la mort, _|_ _ _ _|||
 !fermata!c8 | z4 A4 | c2 B2 G2 d2 | d2 c2 d2 B2 | A8 | z8 | A4 c2 B2 | G2 A2 B2 c2 | A2 A2 c4 | %41
w: |J'ay|à Ve- nus si|tres bon re- con|fort,||que le re-|tour au- ra quel-|que vi- gueur,|
 z2 f2 g2 g2 | c2 c2 d2 d2 | G2 A2 B2 G2 | A2 A2 G2 d2- | d2 c2 B2 A2- | AG G2 A4 | z2 g4 f2 | %48
w: que le re-|tour au- ra quel-|que _ _ _|_ vi- gueur, au-|* ra quel- que|_ _ vi gueur,|au- ra|
 e2 d4 c2 | d4 z2 d2 | d2 c2 d2 d2 | e3 d c2 BA | G2 B2 A4 | G2 c4 B2 | c3 d e2 c2 | B8 |] %56
w: quel- que vi-|gueur, que|le re- tour au-|ra _ _ _ _|_ quel- que|_ _ _|* * * vi-|gueur.|
V:4
 z2 G,4 E,2 | F,2 G,2 C,2 C2- | C2 A,2 B,2 C2 | F,2 _B,4 G,2 | A,4 G,3 F, | E,D, F,2 E,4 | %6
w: Si le|par- tir m'est dueil|_ et dou- *||||
 D,4 z2 G,2- | G,2 E,2 F,2 D,2 | z8 | z2 G,2 A,2 B,2 | C4 z4 | z8 | z4 z2 G,2- | G,2 E,2 A,4 | %14
w: leur, ha-|* bon- don- ner,||ha- bon- don-|ner||le|_ de- sir|
 G,3 F, E,2 F,2 | D,2 G,2 C,D, E,F, | G,2 A,2 E,4 | A,4 z4 | z8 | z8 | z2 B,4 B,2 | %21
w: de _ _ mon|_ _ _ _ _ _||cueur,|||le de-|
 B,G,A,B, CB,A,G, | A,4 G,4 | z4 z2 G,2 | A,2 F,2 G,2 E,2 | F,2 D,2 E,2 F,2 | D,2 E,4 D,2 | %27
w: sir- * * * de _ _ _|mon cueur,|qui|en ses mains tient|la vi' et la|_ _ _|
 E,2 C,2 D,2 E,2 | F,2 G,2 C,2 G,2 | G,F, E,D, C,2 E,2 | D,4 C,4 | G,4 C,4- | !fermata!C,8 | %33
w: ||mort, _ _ _ _ _|_ _|||
 D,4 F,2 F,2 | C,2 G,2 G,2 F,2 | G,2 E,2 D,4- | D,4 z4 | z2 F,2 F,2 E,2 | F,2 D,2 C,2 G,2 | %39
w: J'ay à Ve-|nus si tre bon|re- con fort,|_|si- tres bon|re- con- fort, si|
 G,2 F,2 G,2 C,2 | D,4 z4 | z4 G,4 | A,2 A,2 D,2 G,2 | G,2 F,2 G,2 E,2 | D,4 z2 _B,2 | %45
w: tres bon re- con-|fort,|que|le re- tour au-|ra quel- que vi-|gueur, que|
 B,2 A,2 G,2 F,2 | E,4 D,4 | z8 |"^#" G,4 A,2 A,2 | D,2 G,2 G,2 F,2 | G,2 E,2 D,4 | z4 C,4 | %52
w: _ _ _ le|re- tour,||que le re-|tour au- ra quel-|que vi- gueur,|que|
 C,2 B,,2 C,2 D,2 | E,2 C,2 C,2 G,2 | C,4 C,4 | G,8 |] %56
w: le re- tour au-|ra quel- que _|_ vi-|gueur.|

